X:67
T:Dinny O'Brien's reel
R:Reel
S:Richard Darsie's web page
Z:Transcription, chords:Mike Long
M:C|
L:1/8
K:G
"D"fd ~d2 ABcA|"C"dcAd cAGE|"D"D2 FD ADFD|\
"Am"(3(EFG) AB "C"cdeg|"D"fd ~d2 ABcA|"C"dcAd cAGE|
"D"DEFD "C"(3(EFG) AB|"Am"cAGE "D"AD D2:|\
|:"D"fdd^c defg|\
ad ~d2 adfa|"C"g=ccB cdef|
"Am"gc ~c2 "C"gceg|"D"fd ~d2 ABcA|"C"dcAd cAGE|\
"D"DEFD "C"(3(EFG) AB|"Am"cAGE "D"AD D2:|
